!!!COM: Martin, Frank
!!!OTL: Sonata for Violin and Piano
!!!OMV: III: Finale: Bien modéré (Moderately)
!!!example: 552
!!!work: Mai-15
**kern	**kern	**kern	**dynam
*part2	*part2	*part1	*part1
*staff3	*staff2	*staff1	*
*I"Piano	*	*I"Violin	*
*I'Pno.	*	*I'Vln.	*
*clefF4	*clefF4	*clefG2	*
*k[f#c#g#d#a#]	*k[f#c#g#d#a#]	*k[f#c#g#d#a#]	*
*B:	*B:	*B:	*
*M6/8	*M6/8	*M6/8	*
*MM99	*MM99	*MM99	*
=35	=35	=35	=35
8EE	8BL	8r	.
.	(8qA#X/	.	.
8r	8B)	4a#X	pp
8r	8c#'~J	.	.
*	*clefG2	*	*
.	(8qdn/	.	.
8AAn	8e)	4g##X	.
8r	4fn)	.	.
8r	.	[8A#	.
=36	=36	=36	=36
8FF#	8r	8A#]	.
.	(8qe#X/	.	.
8r	8f#L)	[4g#X	.
8r	8e#XJ	.	.
8BBB	8f#L	4g#]	.
8r	8e#	.	.
8r	8d#XJ)	(8g#	.
=37	=37	=37	=37
*8ba	*	*	*
8FFF##X 8FF##X	(16cc#LL	4f#)	.
.	16bJJ	.	.
8r	[4cc#	.	.
8r	.	[8e	.
8GGG# 8GG#	8cc#]	8e]	.
8r	4b)	[4d#	.
8r	.	.	.
=38	=38	=38	=38
8EEE#X 8EE#X	(24a#LL	8d#]	.
.	24g##X	.	.
.	24a#JJ	.	.
8r	[4g##	8r	.
8r	.	([8c##X	.
8AAA# 8AA#	16g##LL])	8c##L]	.
.	(16G#X	.	.
8r	16g#X	8d#	.
.	16f#	.	.
8r	16g#	8c##J	.
.	16f#JJ	.	.
=39	=39	=39	=39
8BBB 8BB	16g#LL	4d#)	.
.	16e#X	.	.
8r	16f#	.	.
.	16g#	.	.
8r	16a#	([8e	.
.	16g#JJ	.	.
8FFF##X 8FF##X	16a#LL	8eL]	.
.	16f##X	.	.
8r	16g#	8e#X	.
.	16a#	.	.
8r	16b	8c##XJ)	.
.	16a#JJ	.	.
=40	=40	=40	=40
8BB#X 8B#X	16bnLL	8r	.
.	16a#	.	.
*X8ba	*	*	*
8r	16b	(4d##X	.
.	16a#	.	.
8r	16b	.	.
.	16a#JJ	.	.
8CC# 8C#	4b)	8e#XL	.
8r	.	8d##	.
.	(16qb/LL	.	.
.	16qcc#/JJ	.	.
8r	[8ddn)	8e#J)	.
=41	=41	=41	=41
8AAAn 8AAn	16ddLL]	8r	.
.	(16dnJ	.	.
!	!	!LO:TX:b:t=poco cresc.	!
8r	8.cc#)	(8d##XL	.
8r	.	16e#XL	.
.	16dJk	16d##JJ	.
8DDn 8Dn	8.ccnL	4e#)	.
8r	.	.	.
.	(16d#Xk	.	.
8r	[8ccJ	([8f#	.
=42	=42	=42	=42
8BBB 8BB	16ccLL])	8f#L]	.
.	(16BJ	.	.
.	.	8qe#X/	.
8r	8.a#X	8f#	.
8r	.	8g#J)	.
.	16anJk)	.	.
.	.	8qg##X/	.
8EE 8E	(4g#	8a#	.
8r	.	4b	.
.	(16qf##X/LL	.	.
.	16qg#/JJ	.	.
8r	8f#')	.	.
=	=	=	=
*-	*-	*-	*-
!!!system-decoration: s1{(s2,s3)}
!!!CDT: 1890/09/15-1974/11/21
!!!CBL: Geneva, Switzerland
!!!CDL: Naarden, Netherlands
!!!CNT: Swiss
!!!AGN: Instrumental; Chamber
!!!MCN:
!!!MDT: 1932/10/07
!!!MGN:
!!!MLC: Geneva, Switzerland
!!!MPD: 1932
!!!MPN: Goering, Jean; Martin, Frank
!!!ODT: 1932
!!!PDT: 1959
!!!excerpt-start-measure: 35
!!!excerpt-end-measure: 42
!!!excerpt-start-time: 2:12
!!!excerpt-end-time: 2:29
!!!EEV: 2020/01/25
!!!ONB: Converted from MusicXML on 2020/01/25
